X: 369
T:Plus nulz regretz
N: Derived from Jos2828-Plus_nulz_regrets.krn
C: Josquin des Prez
%%abc-version 2.0
%%abcx-abcm2ps-target-version 5.9.1 (29 Sep 2008)
%%abc-creator hum2abc beta
%%abcx-conversion-date 2019/02/12 16:15:54
%%abc-edited-by Jesse Rodin
%%abc-edited-by Will Watson 17/08/2011
%%abcx-initial-encoding-date 2011/08/17/
%%humdrum-veritas 115750541
%%humdrum-veritas-data 2178311940
%%linebreak <none>
%%barnumbers 0
L: 1/4
M: 2/1
Q: 1/2=120
%%staves [1 2 3 4]
V: 1 clef=treble
V: 2 clef=treble-8
V: 3 clef=treble-8
V: 4 clef=bass
K: C
[V:1] z8 | 
[V:2] z4A4 | 
[V:3] z8 | 
[V:4] A,4A,4- | 
[V:1] z8 | 
[V:2] c2d2e4 | 
[V:3] z8 | 
[V:4] A,2G,F,G,2A,2 | 
[V:1] z4D4 | 
[V:2] f6ed | 
[V:3] d4d4- | 
[V:4] D,8 | 
[V:1] F2G2A4 | 
[V:2] d4z4 | 
[V:3] d2cBc2d2 | 
[V:4] z8 | 
[V:1] _B6AG | 
[V:2] d4d2d2 | 
[V:3] G8 | 
[V:4] G,4G,2G,2 | 
[V:1] G4z4 | 
[V:2] B2e4d2 | 
[V:3] z8 | 
[V:4] G,4F,4 | 
[V:1] G4G2G2 | 
[V:2] e8 | 
[V:3] c4c2c2 | 
[V:4] E,8 | 
[V:1] E2A4G2 | 
[V:2] z4e4 | 
[V:3] c4B4 | 
[V:4] z4E,4 | 
[V:1] A4z2A2 | 
[V:2] c4d4 | 
[V:3] A4z2A2 | 
[V:4] F,4F,4 | 
[V:1] G4G4 | 
[V:2] e3cd2e2 | 
[V:3] c4B4 | 
[V:4] E,4z2E,2 | 
[V:1] A6G2 | 
[V:2] c4z2c2 | 
[V:3] A8 | 
[V:4] F,6E,2 | 
[V:1] F2E2D4 | 
[V:2] d4d4 | 
[V:3] z8 | 
[V:4] D,2C,2B,,4 | 
[V:1] C3DE2F2- | 
[V:2] e4c4 | 
[V:3] z4A4 | 
[V:4] A,,8 | 
[V:1] F2EDG3F | 
[V:2] d6c2 | 
[V:3] _B6A2 | 
[V:4] z8 | 
[V:1] EDD4^C2 | 
[V:2] BAA4G2 | 
[V:3] G2F2E4 | 
[V:4] z8 | 
[V:1] D3EFGA2- | 
[V:2] A4d4 | 
[V:3] D8 | 
[V:4] z4D,4 | 
[V:1] ABc4BA | 
[V:2] c4A4 | 
[V:3] A4c4 | 
[V:4] F,4F,4 | 
[V:1] G8 | 
[V:2] e4z4 | 
[V:3] c4B4 | 
[V:4] E,4z2E,2 | 
[V:1] z4A4 | 
[V:2] d4f4 | 
[V:3] z2B2d2d2 | 
[V:4] G,2G,2D,2F,2- | 
[V:1] c4c4 | 
[V:2] f4e4 | 
[V:3] A4c3d | 
[V:4] F,G,A,3G,A,2 | 
[V:1] B4z2B2 | 
[V:2] z2e2g2g2 | 
[V:3] e6dc | 
[V:4] E,8 | 
[V:1] d2d2A4 | 
[V:2] d4f4 | 
[V:3] B2G2d4 | 
[V:4] z4D,4 | 
[V:1] c6BA | 
[V:2] e3cc4 | 
[V:3] z2A2e4 | 
[V:4] A,4A,4 | 
[V:1] B8 | 
[V:2] z4d4 | 
[V:3] e4d4- | 
[V:4] G,6F,E, | 
[V:1] z4A4 | 
[V:2] f4f4 | 
[V:3] d2cBA2d2 | 
[V:4] D,8 | 
[V:1] c3Ac2B2- | 
[V:2] e3cc2e2 | 
[V:3] c2A2e4 | 
[V:4] z2A,2A,2E,2 | 
[V:1] BGB2A2c2- | 
[V:2] d2B2d2c2 | 
[V:3] z2d2d2A2 | 
[V:4] G,4F,4 | 
[V:1] c2BA^GABG | 
[V:2] e4z2E2 | 
[V:3] c4B4 | 
[V:4] E,8 | 
[V:1] A4z2A2 | 
[V:2] F2D2F4 | 
[V:3] A8 | 
[V:4] z2D,2D,2A,,2 | 
[V:1] G2E2G2F2- | 
[V:2] E4D4 | 
[V:3] z2G2G2D2 | 
[V:4] C,4B,,4 | 
[V:1] F2ED^CDEC | 
[V:2] A8 | 
[V:3] F4E4 | 
[V:4] A,,8 | 
[V:1] D8 | 
[V:2] z4A4 | 
[V:3] D8 | 
[V:4] D,4F,4 | 
[V:1] z8 | 
[V:2] c4B4 | 
[V:3] z4d4 | 
[V:4] E,4D,4 | 
[V:1] A4c4 | 
[V:2] A8 | 
[V:3] f4e4 | 
[V:4] z8 | 
[V:1] B4A4 | 
[V:2] z4z2A2 | 
[V:3] d6cB | 
[V:4] z2D,2F,2F,2 | 
[V:1] z8 | 
[V:2] c2c2c4 | 
[V:3] A4z4 | 
[V:4] F,4E,4 | 
[V:1] z4z2A2 | 
[V:2] B4A2F2- | 
[V:3] z2d2f2f2 | 
[V:4] D,8 | 
[V:1] c2c2c4 | 
[V:2] FGABc2A2 | 
[V:3] f4e4 | 
[V:4] z8 | 
[V:1] B4A4 | 
[V:2] B2G2d4 | 
[V:3] d8 | 
[V:4] z4D,4 | 
[V:1] z8 | 
[V:2] z2A2c4 | 
[V:3] z8 | 
[V:4] F,4E,4 | 
[V:1] z4A4 | 
[V:2] B4A4- | 
[V:3] d4f4 | 
[V:4] D,8 | 
[V:1] c4B4 | 
[V:2] A4z4 | 
[V:3] e4d4- | 
[V:4] z8 | 
[V:1] A8 | 
[V:2] z2d2f2f2 | 
[V:3] d2cBA4 | 
[V:4] z4D,4 | 
[V:1] z2c2c2c2 | 
[V:2] f4e3c | 
[V:3] z8 | 
[V:4] A,6A,2 | 
[V:1] B4A4 | 
[V:2] e2d3cA2 | 
[V:3] z4A4 | 
[V:4] G,4F,4 | 
[V:1] G3AB2c2 | 
[V:2] c2B4A2 | 
[V:3] e6e2 | 
[V:4] E,6C,2 | 
[V:1] BAA4^G2 | 
[V:2] f4e4 | 
[V:3] d3cB4 | 
[V:4] D,4E,4 | 
[V:1] A4z2E2 | 
[V:2] c3de2c2 | 
[V:3] A8 | 
[V:4] A,,4A,,4 | 
[V:1] F6F2 | 
[V:2] d2DEFGAB | 
[V:3] z8 | 
[V:4] D,6D,2 | 
[V:1] E4D4 | 
[V:2] c2G3FD2 | 
[V:3] z4D4 | 
[V:4] C,4B,,4 | 
[V:1] C3DE2F2 | 
[V:2] E2c4A2 | 
[V:3] A6A2 | 
[V:4] A,,6F,,2 | 
[V:1] EDD4^C2 | 
[V:2] _B4A4 | 
[V:3] G3FE4 | 
[V:4] G,,4A,,4 | 
[V:1] D2A4F2 | 
[V:2] F2D2d4 | 
[V:3] D8 | 
[V:4] z4D,4 | 
[V:1] G4A4 | 
[V:2] c2B2A4 | 
[V:3] z8 | 
[V:4] E,4F,4 | 
[V:1] D2d4B2 | 
[V:2] G4z2g2 | 
[V:3] z4G4 | 
[V:4] G,8 | 
[V:1] c4d4 | 
[V:2] f2e2d4 | 
[V:3] A4B4 | 
[V:4] z4G,4 | 
[V:1] G2c4B2 | 
[V:2] c2ABcde2- | 
[V:3] c8 | 
[V:4] C3B,A,2G,2 | 
[V:1] A4G2E2 | 
[V:2] e2d4c2 | 
[V:3] z4c4 | 
[V:4] F,4E,4 | 
[V:1] F2DEFGA2- | 
[V:2] d8 | 
[V:3] f3ed2c2 | 
[V:4] D,8 | 
[V:1] A2G4^F2 | 
[V:2] z4d4 | 
[V:3] B4A4 | 
[V:4] z4D,4 | 
[V:1] G4z2G2 | 
[V:2] B4B4 | 
[V:3] G4z2G2 | 
[V:4] E,4E,4 | 
[V:1] E4E4 | 
[V:2] c4z2c2 | 
[V:3] A4A4 | 
[V:4] A,,8 | 
[V:1] F4z2F2 | 
[V:2] d3cd2A2 | 
[V:3] D8 | 
[V:4] z4A,4 | 
[V:1] G6F2 | 
[V:2] B2EFGAB2- | 
[V:3] z8 | 
[V:4] G,3F,E,2D,2 | 
[V:1] E2C2D2B,2 | 
[V:2] B2A4^G2 | 
[V:3] z4d4 | 
[V:4] C,2A,,2B,,4 | 
[V:1] C2A,B,CDE2- | 
[V:2] A2c3AB2- | 
[V:3] c3BA2G2 | 
[V:4] A,,8 | 
[V:1] E2D4^C2 | 
[V:2] B2A4G2 | 
[V:3] F2D2E4 | 
[V:4] z8 | 
[V:1] D4F4 | 
[V:2] A4z2A2 | 
[V:3] D8 | 
[V:4] z4A,4 | 
[V:1] G6F2 | 
[V:2] B2EFGAB2- | 
[V:3] z8 | 
[V:4] G,3F,E,2D,2 | 
[V:1] E2C2D2B,2 | 
[V:2] B2A4^G2 | 
[V:3] z4d4 | 
[V:4] C,2A,,2B,,4 | 
[V:1] C2A,B,CDE2- | 
[V:2] A8- | 
[V:3] c3BA2G2 | 
[V:4] A,,8- | 
[V:1] E2D4^C2 | 
[V:2] A8- | 
[V:3] F2D2E4 | 
[V:4] A,,8 | 
[V:1] D8 |]  
[V:2] A8 |]  
[V:3] D8 |]  
[V:4] D,8 |]  



